!!!COM:	Pierre de la Rue
**kern	**kern
*part2	*part1
*staff2	*staff1
*clefF4	*clefGv2
*k[]	*k[]
*M2/1	*M2/1
=1-	=1-
1E	0B
2E	.
2E	.
=2	=2
2D	1B
2BB	.
2E	1B
2F	.
=3	=3
2G	0B
2.A	.
4G	.
2G	.
=4	=4
2.A	1c
4G	.
4F	2A
4E	.
[2E	2B
=5	=5
2E]	2c
2D	1d
1E	.
.	2c
=6	=6
2r	1d
2BB	.
1D	2r
.	2A
=7	=7
2AA	2.c
1E	.
.	4B
.	4G
.	4A
[2BB	4B
.	4c
=8	=8
2BB]	2B
2E	2E
1G	2r
.	2B
=9	=9
2D	2.d
1F	.
.	4c
.	2A
2E	[2c
=10	=10
[0E	2c]
.	2B
.	4B
.	4A
.	4G
.	4F
=11	=11
0E]	4E
.	4F
.	4G
.	4A
.	2B
.	[2c
=12	=12
0E	4c]
.	4B
.	4B
.	4A
.	1G
=13	=13
2r	2r
1F	1c
2E	4c
.	4B
=14	=14
4E	4B
4D	4A
4C	2.c
4BB	.
4AA	.
4BB	4B
4C	4B
4D	4A
=15	=15
2E	4c
.	4B
2.F	4B
.	4A
.	2.c
4E	.
4E	.
4D	4B
=16	=16
2C	4B
.	4A
2D	2.A
1BB	.
.	4G
.	4G
.	4F
=17	=17
0AA	0A
==	==
*-	*-
